!!!COM:	Japart, Jean
!!!CDT:	~1450//-~1507//
!!!OTL:	Loier mi fault
!!!AGN:	Song; Chanson
!!!SCT:	Jap3014
!!!SCA:	Jap3014
!!!voices:	4
**kern	**kern	**kern	**kern
*staff4	*staff3	*staff2	*staff1
*Ivox	*Ivox	*Ivox	*Ivox
*I"Bassus	*I"Tenor	*I"Contra	*I"Discantus
*I'B	*I'T	*I'C	*I'D
*>[A,B]	*>[A,B]	*>[A,B]	*>[A,B]
*>A	*>A	*>A	*>A
*clefF4	*clefGv2	*clefGv2	*clefG2
*k[b-]	*k[b-]	*k[b-]	*k[b-]
*M2/1	*M2/1	*M2/1	*M2/1
*met(C|)	*met(C|)	*met(C|)	*met(C|)
!!section: Loier mi fault
!!!OMD: Loier mi fault
=1-	=1-	=1-	=1-
0D	0r	1d	0r
.	.	[1d	.
=2	=2	=2	=2
1BB-	0r	1d]	0r
1C	.	1e	.
=3	=3	=3	=3
1.D	0r	0d	0r
4C	.	.	.
4BB-	.	.	.
=4	=4	=4	=4
2C	1G	1e	0r
4BB-	.	.	.
4AA	.	.	.
1GG	[1G	[1g	.
=5	=5	=5	=5
1r	1G]	2g]	0r
.	.	4f#i	.
.	.	4e	.
1D	1A	1f#i	.
=6	=6	=6	=6
2E	0G	0g	0r
1G	.	.	.
4F	.	.	.
4E	.	.	.
=7	=7	=7	=7
1F	1A	1r	0r
1E	[1c	1g	.
=8	=8	=8	=8
0D	2c]	1.f	0r
.	4Bni	.	.
.	4A	.	.
.	1Bni	.	.
.	.	4e	.
.	.	4d	.
=9	=9	=9	=9
0C	0c	1.e	1g
.	.	.	[1g
.	.	4d	.
.	.	4c	.
=10	=10	=10	=10
1G	1r	1e	1g]
1F	1d	1f	1a
=11	=11	=11	=11
1E	2e	2.g	0g
.	1g	.	.
.	.	4f	.
1C	.	1e	.
.	4f	.	.
.	4e	.	.
=12	=12	=12	=12
1r	1f	1d	1a
1C	1e	2G	[1cc
.	.	[2g	.
=13	=13	=13	=13
1G	0d	1g]	2cc]
.	.	.	4bni
.	.	.	4a
1G	.	1g	1bni
=14	=14	=14	=14
0A	0c	1.e	0cc
.	.	2f	.
=15	=15	=15	=15
1G	0r	1g	0r
[1F	.	[1a	.
=16	=16	=16	=16
1F]	1r	1a]	0r
1E	1c	1g	.
=17	=17	=17	=17
1.D	0d	0f	0r
4C	.	.	.
4BB-	.	.	.
=18	=18	=18	=18
2.C	1c	1e	1cc
4BB-	.	.	.
1GG	[1B-	[1d	[1dd
=19	=19	=19	=19
0r	1B-]	2d]	1dd]
.	.	1g	.
.	1A	.	1cc
.	.	2f#i	.
=20	=20	=20	=20
0GG	2G	1g	0b-
.	2A	.	.
.	2B-	[1d	.
.	[2G	.	.
=21	=21	=21	=21
1D	2G]	1d]	1a
.	2F#i	.	.
1E	1G	1c	[1g
=22	=22	=22	=22
0D	0A	0d	2g]
.	.	.	4f#i
.	.	.	4e
.	.	.	1f#i
=23	=23	=23	=23
0GGl	0Gl	0dl	0gl
!!xLO:LB:i:g=z
=24:|!|:	=24:|!|:	=24:|!|:	=24:|!|:
*>B	*>B	*>B	*>B
1GG	1B-	0r	0r
[1C	1A	.	.
=25	=25	=25	=25
1C]	2G	0r	0r
.	1c	.	.
1AA	.	.	.
.	4B-	.	.
.	4A	.	.
=26	=26	=26	=26
1.D	1.B-	0r	0r
4C	4A	.	.
4BB-	4G	.	.
=27	=27	=27	=27
1C	1A	0r	0r
1BB-	[1G	.	.
=28	=28	=28	=28
1AA	2G]	0r	0r
.	4F#i	.	.
.	4E	.	.
1AA	1F#i	.	.
=29	=29	=29	=29
1GG	1G	0r	1b-
1AA	[1c	.	1a
=30	=30	=30	=30
0C	0c]	1g	2g
.	.	.	1cc
.	.	[1g	.
.	.	.	4b-
.	.	.	4a
=31	=31	=31	=31
1GG	1.d	2g]	1.b-
.	.	4f	.
.	.	4e	.
1G	.	2.d	.
.	4c	.	4a
.	4B-	4e	4g
=32	=32	=32	=32
1F	1c	2.f	1a
.	.	4e	.
1E	1G	1c	[1g
=33	=33	=33	=33
*	*	*M3/1	*
*	*	*met(O/3)	*
*rscale:2/3	*rscale:2/3	*	*rscale:2/3
!	!	!LO:TX:Z=8:t=O/3 mensuration	!
0.D	0.A	0d	1.g]
.	.	.	1.f#i
.	.	1d	.
*rscale:1	*	*	*
=34	=34	=34	=34
*M3/1	*	*	*
*met(O/3)	*	*	*
!LO:TX:Z=8:t=O/3 mensuration	!	!	!
1GG	0.G	0d	0.g
1BB-	.	.	.
1C	.	1e	.
*	*rscale:1	*	*rscale:1
=35	=35	=35	=35
*	*M3/1	*	*M3/1
*	*met(O/3)	*	*met(O/3)
!!primary-mensuration: met(O/3)
!	!LO:TX:Z=8:t=O/3 mensuration	!	!LO:TX:Z=8:t=O/3 mensuration
1.D	1r	0d	0.r
.	1r	.	.
4C	.	.	.
4BB-	.	.	.
2C	1G	1e	.
4BB-	.	.	.
4AA	.	.	.
=36	=36	=36	=36
0GG	0G	0g	0.r
1D	1A	1f	.
=37	=37	=37	=37
0E	0G	0g	0.r
1C	1A	1e	.
=38	=38	=38	=38
1E	1.c	1c	0.r
0D	.	0d	.
.	4Bni	.	.
.	4A	.	.
.	1Bni	.	.
=39	=39	=39	=39
0C	1.c	0.e	1r
.	.	.	1r
.	2d	.	.
1C	2e	.	1g
.	2f	.	.
=40	=40	=40	=40
0GG	1.g	1r	0g
.	.	1r	.
.	2e	.	.
1D	1f	1d	1a
=41	=41	=41	=41
0E	1.g	1B-	0g
.	.	1c	.
.	4f	.	.
.	4e	.	.
1D	1f	1d	1a
=42	=42	=42	=42
1C	1e	0g	1.cc
0G	0d	.	.
.	.	.	2bni
.	.	1g	2bni
.	.	.	4a
.	.	.	4bni
=43	=43	=43	=43
0A	0c	1e	0.cc
.	.	0a	.
1A	1c	.	.
=44	=44	=44	=44
0B-	0d	0g	1r
.	.	.	1r
1A	1c	1f	1cc
=45	=45	=45	=45
0G	0B-	1g	0dd
.	.	2d	.
.	.	2e	.
1r	1A	1f	1cc
=46	=46	=46	=46
0GG	0G	1g	0b-
.	.	0d	.
1D	1F	.	1a
=47	=47	=47	=47
1E	1G	1c	1.g
0D	0A	0d	.
.	.	.	4f#i
.	.	.	4e
.	.	.	1f#i
=48	=48	=48	=48
1GG	0.G	1d	0.g
1BB-	.	1d	.
1C	.	1e	.
=49	=49	=49	=49
1.D	1r	0d	0.r
.	1r	.	.
4C	.	.	.
4BB-	.	.	.
2C	1G	1e	.
4BB-	.	.	.
4AA	.	.	.
=50	=50	=50	=50
0GG	0G	1.g	0.r
.	.	4f	.
.	.	4e	.
1D	1A	1f	.
=51	=51	=51	=51
0E	0G	0g	0.r
1C	1A	1c	.
=52	=52	=52	=52
1E	0c	1g	0.r
0D	.	0f	.
.	1Bni	.	.
=53	=53	=53	=53
0C	0.c	0e	1r
.	.	.	1r
1C	.	1e	1g
=54	=54	=54	=54
0GG	0.r	1.g	0g
.	.	4f	.
.	.	4e	.
1D	.	1f	1a
=55	=55	=55	=55
0E	0.r	1.g	0g
.	.	4f	.
.	.	4e	.
1D	.	1f	1a
=56	=56	=56	=56
1C	0.r	1e	1.cc
0G	.	0d	.
.	.	.	4bni
.	.	.	4a
.	.	.	1bni
=57	=57	=57	=57
0C	1r	1.c	0.cc
.	1r	.	.
.	.	2B-	.
1C	1c	1A	.
=58	=58	=58	=58
1BB-	0d	1.G	1r
1GG	.	.	1r
.	.	2F	.
1AA	1c	1F	1cc
=59	=59	=59	=59
0GG	0B-	1G	0dd
.	.	2d	.
.	.	2e	.
1r	1A	1f	1cc
=60	=60	=60	=60
0GG	1.G	1g	0b-
.	.	0d	.
.	4F	.	.
.	4E	.	.
1D	1F	.	1a
=61	=61	=61	=61
1E	1G	1c	0g
0D	0A	0d	.
.	.	.	1f#i
=62	=62	=62	=62
0GG	0G	0d	0g
1G	1G	1e	1b-
=63	=63	=63	=63
1F	1.c	1f	1.a
0A	.	1e	.
.	1c	.	2b-
.	.	1f	2cc
.	2r	.	4b-
.	.	.	4a
=64	=64	=64	=64
0G	1.d	1.g	1.b-
.	4c	4f	4a
.	4B-	4e	4g
1F	1c	2.f	2.a
.	.	4e	4g
=65	=65	=65	=65
1E	1G	1c	1.g
0D	0A	0d	.
.	.	.	4f#i
.	.	.	4e
.	.	.	1f#i
=66	=66	=66	=66
0.GGl	0.Gl	0.dl	0.gl
==	==	==	==
*-	*-	*-	*-
!!!RDF**kern: l=long note in original notation
!!!RDF**kern: i=editorial accidental
!!!ENC:	Chris Gage 09-18-2013
!!!END:	2013/10/24/
!!!EED:	Jesse Rodin
!!!EEV:	2013/12/19/
!!!ONB:	Translated from MusicXML and edited on 2013/12/19/ by Craig Sapp
!!muse2ps: C^@{COM}^i2I150v85,85,85,100Q16
